assets/images/doc-stats-patients.svg

<svg width="56" height="56" viewBox="0 0 56 56" fill="none" xmlns="http://www.w3.org/2000/svg">
<rect width="56" height="56" rx="28" fill="#F3F4F6"/>
<path d="M24.1817 15.2727C20.8471 15.2727 18.1362 17.9836 18.1362 21.3182C18.1362 24.5891 20.6944 27.2363 24.029 27.3509C24.1308 27.3382 24.2326 27.3382 24.309 27.3509C24.3344 27.3509 24.3471 27.3509 24.3726 27.3509C24.3853 27.3509 24.3853 27.3509 24.398 27.3509C27.6562 27.2363 30.2144 24.5891 30.2271 21.3182C30.2271 17.9836 27.5162 15.2727 24.1817 15.2727Z" fill="#1C2A3A"/>
<path d="M30.6471 30.7362C27.0962 28.3689 21.3053 28.3689 17.729 30.7362C16.1126 31.818 15.2217 33.2816 15.2217 34.8471C15.2217 36.4125 16.1126 37.8635 17.7162 38.9325C19.498 40.1289 21.8399 40.7271 24.1817 40.7271C26.5235 40.7271 28.8653 40.1289 30.6471 38.9325C32.2508 37.8507 33.1417 36.3998 33.1417 34.8216C33.129 33.2562 32.2508 31.8053 30.6471 30.7362Z" fill="#1C2A3A"/>
<path d="M38.1687 22.0692C38.3723 24.5383 36.616 26.7019 34.1851 26.9946C34.1723 26.9946 34.1723 26.9946 34.1596 26.9946H34.1214C34.0451 26.9946 33.9687 26.9946 33.9051 27.0201C32.6705 27.0837 31.5378 26.6892 30.6851 25.9637C31.996 24.7928 32.7469 23.0364 32.5941 21.1274C32.5051 20.0964 32.1487 19.1546 31.6142 18.3528C32.0978 18.111 32.6578 17.9583 33.2305 17.9074C35.7251 17.691 37.9523 19.5492 38.1687 22.0692Z" fill="#1C2A3A"/>
<path d="M40.7145 33.8417C40.6127 35.0762 39.8236 36.1453 38.5 36.8708C37.2273 37.5708 35.6236 37.9017 34.0327 37.8635C34.9491 37.0362 35.4836 36.0053 35.5854 34.9108C35.7127 33.3326 34.9618 31.818 33.46 30.6089C32.6073 29.9344 31.6145 29.3999 30.5327 29.0053C33.3454 28.1908 36.8836 28.738 39.06 30.4944C40.2309 31.4362 40.8291 32.6199 40.7145 33.8417Z" fill="#1C2A3A"/>
</svg>

<svg xmlns="http://www.w3.org/2000/svg" width="56" height="56" fill="none" viewBox="0 0 56 56"><rect width="56" height="56" fill="#f3f4f6" rx="28"/><path fill="#1c2a3a" d="M24.182 15.273a6.05 6.05 0 0 0-6.046 6.045c0 3.271 2.558 5.918 5.893 6.033.102-.013.204-.013.28 0h.089a6.03 6.03 0 0 0 5.83-6.033 6.05 6.05 0 0 0-6.046-6.045M30.647 30.736c-3.55-2.367-9.342-2.367-12.918 0-1.616 1.082-2.507 2.546-2.507 4.111 0 1.566.89 3.017 2.494 4.085 1.782 1.197 4.124 1.795 6.466 1.795s4.683-.598 6.465-1.794c1.604-1.082 2.495-2.533 2.495-4.111-.013-1.566-.891-3.017-2.495-4.086M38.169 22.07c.203 2.468-1.553 4.632-3.984 4.925h-.064c-.076 0-.152 0-.216.025-1.235.064-2.367-.33-3.22-1.056 1.311-1.171 2.062-2.928 1.91-4.837a5.9 5.9 0 0 0-.98-2.774 4.572 4.572 0 0 1 6.555 3.716"/><path fill="#1c2a3a" d="M40.715 33.842c-.102 1.234-.891 2.303-2.215 3.029-1.273.7-2.876 1.03-4.467.992.916-.827 1.45-1.858 1.552-2.952.128-1.578-.623-3.093-2.125-4.302-.853-.675-1.846-1.21-2.927-1.604 2.812-.814 6.35-.267 8.527 1.49 1.17.941 1.77 2.125 1.654 3.347"/></svg>
